images/50241474.svg

<?xml version="1.0" encoding="UTF-8"?>
<svg xmlns="http://www.w3.org/2000/svg" xmlns:xlink="http://www.w3.org/1999/xlink" width="300pt" height="300pt" viewBox="0 0 300 300" version="1.1">
<defs>
<g>
<symbol overflow="visible" id="glyph0-0">
<path style="stroke:none;" d="M 0.453125 1.59375 L 0.453125 -6.34375 L 4.953125 -6.34375 L 4.953125 1.59375 Z M 0.953125 1.09375 L 4.453125 1.09375 L 4.453125 -5.84375 L 0.953125 -5.84375 Z M 0.953125 1.09375 "/>
</symbol>
<symbol overflow="visible" id="glyph0-1">
<path style="stroke:none;" d="M 3.546875 -5.953125 C 2.898438 -5.953125 2.382812 -5.710938 2 -5.234375 C 1.625 -4.753906 1.4375 -4.101562 1.4375 -3.28125 C 1.4375 -2.445312 1.625 -1.789062 2 -1.3125 C 2.382812 -0.832031 2.898438 -0.59375 3.546875 -0.59375 C 4.191406 -0.59375 4.703125 -0.832031 5.078125 -1.3125 C 5.453125 -1.789062 5.640625 -2.445312 5.640625 -3.28125 C 5.640625 -4.101562 5.453125 -4.753906 5.078125 -5.234375 C 4.703125 -5.710938 4.191406 -5.953125 3.546875 -5.953125 Z M 3.546875 -6.6875 C 4.460938 -6.6875 5.195312 -6.375 5.75 -5.75 C 6.300781 -5.132812 6.578125 -4.3125 6.578125 -3.28125 C 6.578125 -2.238281 6.300781 -1.410156 5.75 -0.796875 C 5.195312 -0.179688 4.460938 0.125 3.546875 0.125 C 2.617188 0.125 1.878906 -0.179688 1.328125 -0.796875 C 0.773438 -1.410156 0.5 -2.238281 0.5 -3.28125 C 0.5 -4.3125 0.773438 -5.132812 1.328125 -5.75 C 1.878906 -6.375 2.617188 -6.6875 3.546875 -6.6875 Z M 3.546875 -6.6875 "/>
</symbol>
<symbol overflow="visible" id="glyph0-2">
<path style="stroke:none;" d="M 0.890625 -6.5625 L 2.078125 -6.5625 L 4.984375 -1.078125 L 4.984375 -6.5625 L 5.84375 -6.5625 L 5.84375 0 L 4.65625 0 L 1.75 -5.484375 L 1.75 0 L 0.890625 0 Z M 0.890625 -6.5625 "/>
</symbol>
<symbol overflow="visible" id="glyph0-3">
<path style="stroke:none;" d="M 0.890625 -6.5625 L 1.765625 -6.5625 L 1.765625 -3.875 L 5 -3.875 L 5 -6.5625 L 5.890625 -6.5625 L 5.890625 0 L 5 0 L 5 -3.125 L 1.765625 -3.125 L 1.765625 0 L 0.890625 0 Z M 0.890625 -6.5625 "/>
</symbol>
<symbol overflow="visible" id="glyph1-0">
<path style="stroke:none;" d="M 0.40625 1.421875 L 0.40625 -5.640625 L 4.40625 -5.640625 L 4.40625 1.421875 Z M 0.84375 0.96875 L 3.953125 0.96875 L 3.953125 -5.1875 L 0.84375 -5.1875 Z M 0.84375 0.96875 "/>
</symbol>
<symbol overflow="visible" id="glyph1-1">
<path style="stroke:none;" d="M 3.6875 -5.015625 L 3.6875 -2.84375 L 5.859375 -2.84375 L 5.859375 -2.171875 L 3.6875 -2.171875 L 3.6875 0 L 3.03125 0 L 3.03125 -2.171875 L 0.84375 -2.171875 L 0.84375 -2.84375 L 3.03125 -2.84375 L 3.03125 -5.015625 Z M 3.6875 -5.015625 "/>
</symbol>
</g>
</defs>
<g id="surface23621">
<rect x="0" y="0" width="300" height="300" style="fill:rgb(100%,100%,100%);fill-opacity:1;stroke:none;"/>
<path style="fill:none;stroke-width:1.2;stroke-linecap:butt;stroke-linejoin:miter;stroke:rgb(100%,0%,0%);stroke-opacity:1;stroke-miterlimit:10;" d="M 124.425781 106.121094 L 124.710938 117.355469 "/>
<path style="fill:none;stroke-width:1.2;stroke-linecap:butt;stroke-linejoin:miter;stroke:rgb(0%,0%,0%);stroke-opacity:1;stroke-miterlimit:10;" d="M 124.710938 117.355469 L 125 128.59375 "/>
<path style="fill:none;stroke-width:1.2;stroke-linecap:butt;stroke-linejoin:miter;stroke:rgb(100%,0%,0%);stroke-opacity:1;stroke-miterlimit:10;" d="M 129.710938 105.984375 L 130 117.21875 "/>
<path style="fill:none;stroke-width:1.2;stroke-linecap:butt;stroke-linejoin:miter;stroke:rgb(0%,0%,0%);stroke-opacity:1;stroke-miterlimit:10;" d="M 130 117.21875 L 130.289062 128.457031 "/>
<path style=" stroke:none;fill-rule:nonzero;fill:rgb(100%,100%,100%);fill-opacity:1;" d="M 123.070312 100.550781 L 131.070312 100.550781 L 131.070312 111.550781 L 123.070312 111.550781 Z M 123.070312 100.550781 "/>
<g style="fill:rgb(100%,0%,0%);fill-opacity:1;">
  <use xlink:href="#glyph0-1" x="123.070312" y="109.213867"/>
</g>
<path style="fill:none;stroke-width:1.2;stroke-linecap:butt;stroke-linejoin:miter;stroke:rgb(0%,0%,0%);stroke-opacity:1;stroke-miterlimit:10;" d="M 127.644531 128.523438 L 137.519531 133.894531 "/>
<path style="fill:none;stroke-width:1.2;stroke-linecap:butt;stroke-linejoin:miter;stroke:rgb(0%,0%,100%);stroke-opacity:1;stroke-miterlimit:10;" d="M 137.519531 133.894531 L 147.394531 139.261719 "/>
<path style="fill:none;stroke-width:1.2;stroke-linecap:butt;stroke-linejoin:miter;stroke:rgb(0%,0%,0%);stroke-opacity:1;stroke-miterlimit:10;" d="M 127.644531 128.523438 L 108.472656 140.261719 "/>
<path style="fill:none;stroke-width:1.2;stroke-linecap:butt;stroke-linejoin:miter;stroke:rgb(0%,0%,100%);stroke-opacity:1;stroke-miterlimit:10;" d="M 147.394531 139.261719 L 147.683594 150.5 "/>
<path style="fill:none;stroke-width:1.2;stroke-linecap:butt;stroke-linejoin:miter;stroke:rgb(0%,0%,0%);stroke-opacity:1;stroke-miterlimit:10;" d="M 147.683594 150.5 L 147.972656 161.738281 "/>
<path style="fill:none;stroke-width:1.2;stroke-linecap:butt;stroke-linejoin:miter;stroke:rgb(0%,0%,0%);stroke-opacity:1;stroke-miterlimit:10;" d="M 166.570312 127.527344 L 156.984375 133.394531 "/>
<path style="fill:none;stroke-width:1.2;stroke-linecap:butt;stroke-linejoin:miter;stroke:rgb(0%,0%,100%);stroke-opacity:1;stroke-miterlimit:10;" d="M 156.984375 133.394531 L 147.394531 139.261719 "/>
<path style=" stroke:none;fill-rule:nonzero;fill:rgb(100%,100%,100%);fill-opacity:1;" d="M 144.394531 133.761719 L 151.394531 133.761719 L 151.394531 144.761719 L 144.394531 144.761719 Z M 144.394531 133.761719 "/>
<g style="fill:rgb(0%,0%,100%);fill-opacity:1;">
  <use xlink:href="#glyph0-2" x="144.394531" y="142.424805"/>
</g>
<path style="fill:none;stroke-width:1.2;stroke-linecap:butt;stroke-linejoin:miter;stroke:rgb(0%,0%,0%);stroke-opacity:1;stroke-miterlimit:10;" d="M 147.972656 161.738281 L 167.722656 172.472656 "/>
<path style="fill:none;stroke-width:1.2;stroke-linecap:butt;stroke-linejoin:miter;stroke:rgb(0%,0%,0%);stroke-opacity:1;stroke-miterlimit:10;" d="M 167.722656 172.472656 L 177.3125 166.605469 "/>
<path style="fill:none;stroke-width:1.2;stroke-linecap:butt;stroke-linejoin:miter;stroke:rgb(0%,0%,100%);stroke-opacity:1;stroke-miterlimit:10;" d="M 177.3125 166.605469 L 186.898438 160.738281 "/>
<path style=" stroke:none;fill-rule:nonzero;fill:rgb(0%,0%,0%);fill-opacity:1;" d="M 167.722656 172.472656 L 164.335938 195.050781 L 172.265625 194.84375 Z M 167.722656 172.472656 "/>
<path style="fill:none;stroke-width:1.2;stroke-linecap:butt;stroke-linejoin:miter;stroke:rgb(0%,0%,100%);stroke-opacity:1;stroke-miterlimit:10;" d="M 186.898438 160.738281 L 186.609375 149.5 "/>
<path style="fill:none;stroke-width:1.2;stroke-linecap:butt;stroke-linejoin:miter;stroke:rgb(0%,0%,0%);stroke-opacity:1;stroke-miterlimit:10;" d="M 186.609375 149.5 L 186.320312 138.261719 "/>
<path style="fill:none;stroke-width:1.2;stroke-linecap:butt;stroke-linejoin:miter;stroke:rgb(0%,0%,100%);stroke-opacity:1;stroke-miterlimit:10;" d="M 186.898438 160.738281 L 196.773438 166.105469 "/>
<path style="fill:none;stroke-width:1.2;stroke-linecap:butt;stroke-linejoin:miter;stroke:rgb(0%,0%,0%);stroke-opacity:1;stroke-miterlimit:10;" d="M 196.773438 166.105469 L 206.648438 171.476562 "/>
<path style=" stroke:none;fill-rule:nonzero;fill:rgb(100%,100%,100%);fill-opacity:1;" d="M 176.898438 153.238281 L 197.898438 153.238281 L 197.898438 168.238281 L 176.898438 168.238281 Z M 176.898438 153.238281 "/>
<g style="fill:rgb(0%,0%,100%);fill-opacity:1;">
  <use xlink:href="#glyph0-2" x="176.898438" y="165.339844"/>
  <use xlink:href="#glyph0-3" x="183.875977" y="165.339844"/>
</g>
<g style="fill:rgb(0%,0%,100%);fill-opacity:1;">
  <use xlink:href="#glyph1-1" x="190.890625" y="160.457031"/>
</g>
<path style="fill:none;stroke-width:1.2;stroke-linecap:butt;stroke-linejoin:miter;stroke:rgb(0%,0%,0%);stroke-opacity:1;stroke-miterlimit:10;" d="M 186.320312 138.261719 L 166.570312 127.527344 "/>
<path style="fill:none;stroke-width:1;stroke-linecap:butt;stroke-linejoin:miter;stroke:rgb(0%,0%,0%);stroke-opacity:1;stroke-miterlimit:10;" d="M 166.570312 127.527344 L 166.570312 127.527344 M 167.015625 124.558594 L 165.972656 124.585938 M 167.460938 121.59375 L 165.375 121.644531 M 167.90625 118.625 L 164.78125 118.707031 M 168.351562 115.660156 L 164.183594 115.765625 M 168.796875 112.691406 L 163.585938 112.828125 M 169.242188 109.726562 L 162.988281 109.886719 M 169.6875 106.757812 L 162.390625 106.945312 M 169.960938 104.949219 L 162.027344 105.15625 "/>
<path style="fill:none;stroke-width:1.2;stroke-linecap:butt;stroke-linejoin:miter;stroke:rgb(0%,0%,0%);stroke-opacity:1;stroke-miterlimit:10;" d="M 206.648438 171.476562 L 225.824219 159.738281 "/>
<path style="fill:none;stroke-width:1.2;stroke-linecap:butt;stroke-linejoin:miter;stroke:rgb(0%,0%,0%);stroke-opacity:1;stroke-miterlimit:10;" d="M 225.824219 159.738281 L 245.574219 170.476562 "/>
<path style="fill:none;stroke-width:1.2;stroke-linecap:butt;stroke-linejoin:miter;stroke:rgb(0%,0%,0%);stroke-opacity:1;stroke-miterlimit:10;" d="M 230.324219 156.164062 L 246.125 164.753906 "/>
<path style="fill:none;stroke-width:1.2;stroke-linecap:butt;stroke-linejoin:miter;stroke:rgb(0%,0%,0%);stroke-opacity:1;stroke-miterlimit:10;" d="M 225.246094 137.265625 L 225.824219 159.738281 "/>
<path style="fill:none;stroke-width:1.2;stroke-linecap:butt;stroke-linejoin:miter;stroke:rgb(0%,0%,0%);stroke-opacity:1;stroke-miterlimit:10;" d="M 245.574219 170.476562 L 264.75 158.738281 "/>
<path style="fill:none;stroke-width:1.2;stroke-linecap:butt;stroke-linejoin:miter;stroke:rgb(0%,0%,0%);stroke-opacity:1;stroke-miterlimit:10;" d="M 264.75 158.738281 L 264.171875 136.265625 "/>
<path style="fill:none;stroke-width:1.2;stroke-linecap:butt;stroke-linejoin:miter;stroke:rgb(0%,0%,0%);stroke-opacity:1;stroke-miterlimit:10;" d="M 259.40625 156.628906 L 258.941406 138.648438 "/>
<path style="fill:none;stroke-width:1.2;stroke-linecap:butt;stroke-linejoin:miter;stroke:rgb(0%,0%,0%);stroke-opacity:1;stroke-miterlimit:10;" d="M 264.171875 136.265625 L 244.421875 125.527344 "/>
<path style="fill:none;stroke-width:1.2;stroke-linecap:butt;stroke-linejoin:miter;stroke:rgb(0%,0%,0%);stroke-opacity:1;stroke-miterlimit:10;" d="M 244.421875 125.527344 L 225.246094 137.265625 "/>
<path style="fill:none;stroke-width:1.2;stroke-linecap:butt;stroke-linejoin:miter;stroke:rgb(0%,0%,0%);stroke-opacity:1;stroke-miterlimit:10;" d="M 245.265625 131.214844 L 229.925781 140.601562 "/>
<path style="fill:none;stroke-width:1.2;stroke-linecap:butt;stroke-linejoin:miter;stroke:rgb(0%,0%,0%);stroke-opacity:1;stroke-miterlimit:10;" d="M 108.472656 140.261719 L 88.71875 129.523438 "/>
<path style="fill:none;stroke-width:1.2;stroke-linecap:butt;stroke-linejoin:miter;stroke:rgb(0%,0%,0%);stroke-opacity:1;stroke-miterlimit:10;" d="M 103.96875 143.835938 L 88.167969 135.246094 "/>
<path style="fill:none;stroke-width:1.2;stroke-linecap:butt;stroke-linejoin:miter;stroke:rgb(0%,0%,0%);stroke-opacity:1;stroke-miterlimit:10;" d="M 109.046875 162.734375 L 108.472656 140.261719 "/>
<path style="fill:none;stroke-width:1.2;stroke-linecap:butt;stroke-linejoin:miter;stroke:rgb(0%,0%,0%);stroke-opacity:1;stroke-miterlimit:10;" d="M 88.71875 129.523438 L 69.546875 141.261719 "/>
<path style="fill:none;stroke-width:1.2;stroke-linecap:butt;stroke-linejoin:miter;stroke:rgb(0%,0%,0%);stroke-opacity:1;stroke-miterlimit:10;" d="M 69.546875 141.261719 L 70.121094 163.734375 "/>
<path style="fill:none;stroke-width:1.2;stroke-linecap:butt;stroke-linejoin:miter;stroke:rgb(0%,0%,0%);stroke-opacity:1;stroke-miterlimit:10;" d="M 64.316406 143.644531 L 64.777344 161.621094 "/>
<path style="fill:none;stroke-width:1.2;stroke-linecap:butt;stroke-linejoin:miter;stroke:rgb(0%,0%,0%);stroke-opacity:1;stroke-miterlimit:10;" d="M 47.992188 134.863281 L 69.546875 141.261719 "/>
<path style="fill:none;stroke-width:1.2;stroke-linecap:butt;stroke-linejoin:miter;stroke:rgb(0%,0%,0%);stroke-opacity:1;stroke-miterlimit:10;" d="M 70.121094 163.734375 L 59.523438 167.480469 "/>
<path style="fill:none;stroke-width:1.2;stroke-linecap:butt;stroke-linejoin:miter;stroke:rgb(0%,0%,100%);stroke-opacity:1;stroke-miterlimit:10;" d="M 59.523438 167.480469 L 48.925781 171.226562 "/>
<path style="fill:none;stroke-width:1.2;stroke-linecap:butt;stroke-linejoin:miter;stroke:rgb(0%,0%,0%);stroke-opacity:1;stroke-miterlimit:10;" d="M 70.121094 163.734375 L 89.875 174.472656 "/>
<path style="fill:none;stroke-width:1.2;stroke-linecap:butt;stroke-linejoin:miter;stroke:rgb(0%,0%,100%);stroke-opacity:1;stroke-miterlimit:10;" d="M 48.925781 171.226562 L 42.089844 162.304688 "/>
<path style="fill:none;stroke-width:1.2;stroke-linecap:butt;stroke-linejoin:miter;stroke:rgb(0%,0%,0%);stroke-opacity:1;stroke-miterlimit:10;" d="M 42.089844 162.304688 L 35.25 153.386719 "/>
<path style=" stroke:none;fill-rule:nonzero;fill:rgb(100%,100%,100%);fill-opacity:1;" d="M 41.925781 165.726562 L 55.925781 165.726562 L 55.925781 176.726562 L 41.925781 176.726562 Z M 41.925781 165.726562 "/>
<g style="fill:rgb(0%,0%,100%);fill-opacity:1;">
  <use xlink:href="#glyph0-2" x="41.925781" y="174.389648"/>
  <use xlink:href="#glyph0-3" x="48.90332" y="174.389648"/>
</g>
<path style="fill:none;stroke-width:1.2;stroke-linecap:butt;stroke-linejoin:miter;stroke:rgb(0%,0%,0%);stroke-opacity:1;stroke-miterlimit:10;" d="M 35.25 153.386719 L 47.992188 134.863281 "/>
<path style="fill:none;stroke-width:1.2;stroke-linecap:butt;stroke-linejoin:miter;stroke:rgb(0%,0%,0%);stroke-opacity:1;stroke-miterlimit:10;" d="M 40.882812 154.53125 L 51.078125 139.714844 "/>
<path style="fill:none;stroke-width:1.2;stroke-linecap:butt;stroke-linejoin:miter;stroke:rgb(0%,0%,0%);stroke-opacity:1;stroke-miterlimit:10;" d="M 89.875 174.472656 L 109.046875 162.734375 "/>
<path style="fill:none;stroke-width:1.2;stroke-linecap:butt;stroke-linejoin:miter;stroke:rgb(0%,0%,0%);stroke-opacity:1;stroke-miterlimit:10;" d="M 89.027344 168.785156 L 104.367188 159.398438 "/>
</g>
</svg>

<svg xmlns="http://www.w3.org/2000/svg" xmlns:xlink="http://www.w3.org/1999/xlink" width="300pt" height="300pt" viewBox="0 0 300 300"><defs><symbol overflow="visible"><path d="M.453 1.594v-7.938h4.5v7.938zm.5-.5h3.5v-6.938h-3.5zm0 0"/></symbol><symbol overflow="visible" id="a"><path d="M3.547-5.953c-.65 0-1.164.242-1.547.72-.375.48-.563 1.13-.563 1.952 0 .835.188 1.49.563 1.967.383.48.898.72 1.547.72.644 0 1.156-.24 1.53-.72.376-.476.564-1.132.564-1.968 0-.822-.187-1.474-.562-1.954-.375-.477-.887-.72-1.53-.72zm0-.734c.914 0 1.648.312 2.203.937.55.617.828 1.438.828 2.47 0 1.042-.277 1.87-.828 2.483-.555.617-1.29.922-2.203.922-.93 0-1.668-.305-2.22-.922C.774-1.41.5-2.237.5-3.28c0-1.033.273-1.853.828-2.47.55-.625 1.29-.938 2.22-.938zm0 0"/></symbol><symbol overflow="visible" id="b"><path d="M.89-6.563H2.08l2.906 5.485v-5.484h.86V0H4.656L1.75-5.484V0H.89zm0 0"/></symbol><symbol overflow="visible" id="c"><path d="M.89-6.563h.876v2.688H5v-2.688h.89V0H5v-3.125H1.766V0H.89zm0 0"/></symbol><symbol overflow="visible"><path d="M.406 1.422V-5.64h4V1.42zM.844.97h3.11v-6.157H.843zm0 0"/></symbol><symbol overflow="visible" id="d"><path d="M3.688-5.016v2.172h2.17v.672H3.69V0H3.03v-2.172H.845v-.672H3.03v-2.172zm0 0"/></symbol></defs><g><path fill="#fff" d="M0 0h300v300H0z"/><path d="M124.426 106.12l.285 11.235" stroke-width="1.2" stroke="#f00" stroke-miterlimit="10" fill="none"/><path d="M124.71 117.355l.29 11.24" stroke-width="1.2" stroke="#000" stroke-miterlimit="10" fill="none"/><path d="M129.71 105.984l.29 11.235" stroke-width="1.2" stroke="#f00" stroke-miterlimit="10" fill="none"/><path d="M130 117.22l.29 11.237" stroke-width="1.2" stroke="#000" stroke-miterlimit="10" fill="none"/><path d="M123.07 100.55h8v11h-8zm0 0" fill="#fff"/><use xlink:href="#a" x="123.07" y="109.214" fill="#f00"/><path d="M127.645 128.523l9.875 5.372" stroke-width="1.2" stroke="#000" stroke-miterlimit="10" fill="none"/><path d="M137.52 133.895l9.875 5.367" stroke-width="1.2" stroke="#00f" stroke-miterlimit="10" fill="none"/><path d="M127.645 128.523l-19.172 11.74" stroke-width="1.2" stroke="#000" stroke-miterlimit="10" fill="none"/><path d="M147.395 139.262l.29 11.238" stroke-width="1.2" stroke="#00f" stroke-miterlimit="10" fill="none"/><path d="M147.684 150.5l.29 11.238M166.57 127.527l-9.586 5.868" stroke-width="1.2" stroke="#000" stroke-miterlimit="10" fill="none"/><path d="M156.984 133.395l-9.59 5.867" stroke-width="1.2" stroke="#00f" stroke-miterlimit="10" fill="none"/><path d="M144.395 133.762h7v11h-7zm0 0" fill="#fff"/><use xlink:href="#b" x="144.395" y="142.425" fill="#00f"/><path d="M147.973 161.738l19.75 10.735M167.723 172.473l9.59-5.868" stroke-width="1.2" stroke="#000" stroke-miterlimit="10" fill="none"/><path d="M177.313 166.605l9.585-5.867" stroke-width="1.2" stroke="#00f" stroke-miterlimit="10" fill="none"/><path d="M167.723 172.473l-3.387 22.578 7.93-.206zm0 0"/><path d="M186.898 160.738l-.29-11.238" stroke-width="1.2" stroke="#00f" stroke-miterlimit="10" fill="none"/><path d="M186.61 149.5l-.29-11.238" stroke-width="1.2" stroke="#000" stroke-miterlimit="10" fill="none"/><path d="M186.898 160.738l9.875 5.367" stroke-width="1.2" stroke="#00f" stroke-miterlimit="10" fill="none"/><path d="M196.773 166.105l9.875 5.372" stroke-width="1.2" stroke="#000" stroke-miterlimit="10" fill="none"/><path d="M176.898 153.238h21v15h-21zm0 0" fill="#fff"/><g fill="#00f"><use xlink:href="#b" x="176.898" y="165.34"/><use xlink:href="#c" x="183.876" y="165.34"/></g><use xlink:href="#d" x="190.891" y="160.457" fill="#00f"/><path d="M186.32 138.262l-19.75-10.735" stroke-width="1.2" stroke="#000" stroke-miterlimit="10" fill="none"/><path d="M166.57 127.527m.446-2.968l-1.043.026m1.488-2.992l-2.085.05m2.53-3.02l-3.124.083m3.572-3.047l-4.168.106m4.613-3.075l-5.21.138m5.655-3.1l-6.254.16m6.7-3.13l-7.297.187m7.57-1.996l-7.933.206" stroke="#000" stroke-miterlimit="10" fill="none"/><path d="M206.648 171.477l19.176-11.74M225.824 159.738l19.75 10.74M230.324 156.164l15.8 8.59M225.246 137.266l.578 22.472M245.574 170.477l19.176-11.74M264.75 158.738l-.578-22.472M259.406 156.63l-.465-17.982M264.172 136.266l-19.75-10.74M244.422 125.527l-19.176 11.74M245.266 131.215l-15.34 9.387M108.473 140.262l-19.754-10.74M103.97 143.836l-15.802-8.59M109.047 162.734l-.574-22.472M88.72 129.523l-19.173 11.74M69.547 141.262l.574 22.472M64.316 143.645l.46 17.976M47.992 134.863l21.555 6.4M70.12 163.734l-10.597 3.746" stroke-width="1.2" stroke="#000" stroke-miterlimit="10" fill="none"/><path d="M59.523 167.48l-10.597 3.747" stroke-width="1.2" stroke="#00f" stroke-miterlimit="10" fill="none"/><path d="M70.12 163.734l19.755 10.74" stroke-width="1.2" stroke="#000" stroke-miterlimit="10" fill="none"/><path d="M48.926 171.227l-6.836-8.922" stroke-width="1.2" stroke="#00f" stroke-miterlimit="10" fill="none"/><path d="M42.09 162.305l-6.84-8.918" stroke-width="1.2" stroke="#000" stroke-miterlimit="10" fill="none"/><path d="M41.926 165.727h14v11h-14zm0 0" fill="#fff"/><g fill="#00f"><use xlink:href="#b" x="41.926" y="174.39"/><use xlink:href="#c" x="48.903" y="174.39"/></g><path d="M35.25 153.387l12.742-18.524M40.883 154.53l10.195-14.815M89.875 174.473l19.172-11.74M89.027 168.785l15.34-9.387" stroke-width="1.2" stroke="#000" stroke-miterlimit="10" fill="none"/></g></svg>
